!!!COM: Bach, Johann Sebastian
!!!OTL: Wie schoen leuchtet der Morgenstern
!!!ONM: No. 323
!!!OCL: Erk
!!!YOE: Riemenschneider, Albert
!!!OPR: 371 Harmonized Chorales and 69 Chorale Melodies with Figured Bass
!!!OPT: Bach Chorale Harmonizations
**kern	**kern	**kern	**kern
! bass	! tenor	! alto	! soprano
*M4/4	*M4/4	*M4/4	*M4/4
*F:	*F:	*F:	*F:
4F	4A	4c	4f
=1	=1	=1	=1
4E	4G	4c	8cc
.	.	.	8b-
8F	8F	4c	8a
8E	8G	.	8g
4D	8A	8d	4f
.	8B-	8e	.
4AA	4c	4f	4cc
=2	=2	=2	=2
8BB-	8c	4f	4dd
8C	16B-	.	.
.	16A	.	.
8D	8B-	4f	4dd
8E	8B-	.	.
4F;	4A;	4f;	4cc;
4E	4c	4g	4cc
=3	=3	=3	=3
4F	4c	4a	4dd
4G	4Bn	4g	4ee
8A	8c	8f	4ff
8Bn	8d	8g	.
8c	8e	4g	4ee
8E	8G	.	.
=4	=4	=4	=4
8F	8A	4f	4dd
8D	8d	.	.
4G	4Bn	4f	4dd
4C;	4c;	4e;	4cc;
4F	4c	4f	4a
=5	=5	=5	=5
4BB-	8B-	4f	4dd
.	8A	.	.
4C	4G	4e	4cc
8D	8d	8f	4b-
8E	8c	8g	.
8F	4c	4f	4a
8BB-	.	.	.
=6	=6	=6	=6
2C	2c	4f	2g
.	.	4e	.
4FF;	4c;	4f;	4f;
!! Repeat from the beginning.
4F	4A	4c	4f
=1	=1	=1	=1
4E	4G	4c	8cc
.	.	.	8b-
8F	8F	4c	8a
8E	8G	.	8g
4D	8A	8d	4f
.	8B-	8e	.
4AA	4c	4f	4cc
=2	=2	=2	=2
8BB-	8c	4f	4dd
8C	16B-	.	.
.	16A	.	.
8D	8B-	4f	4dd
8E	8B-	.	.
4F;	4A;	4f;	4cc;
4E	4c	4g	4cc
=3	=3	=3	=3
4F	4c	4a	4dd
4G	4Bn	4g	4ee
8A	8c	8f	4ff
8Bn	8d	8g	.
8c	8e	4g	4ee
8E	8G	.	.
=4	=4	=4	=4
8F	8A	4f	4dd
8D	8d	.	.
4G	4Bn	4f	4dd
4C;	4c;	4e;	4cc;
4F	4c	4f	4a
=5	=5	=5	=5
4BB-	8B-	4f	4dd
.	8A	.	.
4C	4G	4e	4cc
8D	8d	8f	4b-
8E	8c	8g	.
8F	4c	4f	4a
8BB-	.	.	.
=6	=6	=6	=6
2C	2c	4f	2g
.	.	4e	.
4FF;	4c;	4f;	4f;
!! Continuing.
4r	4r	4r	4r
=7	=7	=7	=7
2E	2c	2g	2cc
2F;	2c;	2a;	2a;
=8	=8	=8	=8
2C	2c	2g	2cc
2FF;	2c;	2f;	2a;
=9	=9	=9	=9
8FF	4c	4f	4a
8GG	.	.	.
8AA	4c	4f	4a
8BB-	.	.	.
8C	4c	8e	4g
8D	.	8d	.
8E	8c	4c	4g
8C	8B-	.	.
=10	=10	=10	=10
8F	8A	4c	4a
8G	8B-	.	.
8A	4c	8c	4a
8B-	.	8d	.
8C	4c	4e	4g
8B-	.	.	.
8A	4c	4e	4g
8G	.	.	.
=11	=11	=11	=11
8F	4c	4f	4a
8E	.	.	.
8D	4d	4f	4a
8C	.	.	.
8BB-	4d	4f	2g
8GG	.	.	.
4C	8c	4e	.
.	8B-	.	.
=12	=12	=12	=12
2FF;	2A;	2f;	2f;
8DD	8d	4a	4ff
8FF	8c	.	.
8GG	4B-	4g	4ee
8AA	.	.	.
=13	=13	=13	=13
4BB-	8B-	4f	4dd
.	8A	.	.
4C	4G	4e	4cc
8D	8F	4d	4b-
8E	8G	.	.
8F	8A	4c	4a
8AA	8c	.	.
=14	=14	=14	=14
8BB-	8.B-	4d	2g
8GG	.	.	.
.	16A	.	.
4C	4G	4c	.
4FF;	4A;	4c;	4f;
==	==	==	==
*-	*-	*-	*-
!!!CDT: 1685/3//-1750/7/28
!!!OCY: Deutschland
!!!AGN: chorale
!!!AST: Baroque
!!!AIN: vox
!!!YOY: 1941
!!!PPP: New York; London
!!!PPR: G. Schirmer
!!!ENC: David Huron
!!!EED: David Huron
!!!YEN: United States of America
!!!YER: 1992
!!!YEC: Copyright 1992 David Huron
!!!YEM: Rights to all derivative electronic formats reserved.
!!!YER: March 20, 1996
!!!AMT: simple quadruple
!!!EEV: 1.1
